flaticon/constructions/drill-1.svg

<svg xmlns="http://www.w3.org/2000/svg" width="32" height="32" viewBox="0 0 24 24">
    <path d="M20.800781 5.375L18.398438 5.375C18.160156 5.375 18 5.535156 18 5.773438 18 6.015625 18.160156 6.175781 18.398438 6.175781L20.800781 6.175781C21.039062 6.175781 21.199219 6.015625 21.199219 5.773438 21.199219 5.535156 21.039062 5.375 20.800781 5.375zM20.800781 6.976562L18.398438 6.976562C18.160156 6.976562 18 7.136719 18 7.375 18 7.613281 18.160156 7.773438 18.398438 7.773438L20.800781 7.773438C21.039062 7.773438 21.199219 7.613281 21.199219 7.375 21.199219 7.136719 21.039062 6.976562 20.800781 6.976562zM10.800781 5.375C10.558594 5.375 10.398438 5.535156 10.398438 5.773438L10.398438 8.976562C10.398438 9.214844 10.558594 9.375 10.800781 9.375L14 9.375C14.238281 9.375 14.398438 9.214844 14.398438 8.976562 14.398438 7.175781 12.601562 5.375 10.800781 5.375zM11.199219 8.574219L11.199219 6.214844C12.28125 6.414062 13.359375 7.496094 13.558594 8.574219zM11.199219 8.574219"/>
    <path d="M 23.601562 8.535156 L 23.238281 5.136719 C 23.199219 4.976562 23.160156 4.816406 23.078125 4.65625 C 22.800781 4.136719 22.28125 3.773438 21.679688 3.773438 L 21.601562 3.773438 C 20.558594 3.773438 19.558594 3.65625 18.558594 3.414062 C 16.238281 2.894531 12.441406 2.894531 10.121094 3.414062 C 9.050781 3.675781 8.214844 4.414062 7.828125 5.375 L 6 5.375 C 5.121094 5.375 4.398438 6.09375 4.398438 6.976562 L 0.398438 6.976562 C 0.160156 6.976562 0 7.136719 0 7.375 C 0 7.613281 0.160156 7.773438 0.398438 7.773438 L 4.398438 7.773438 C 4.398438 8.65625 5.121094 9.375 6 9.375 L 7.828125 9.375 C 8.210938 10.335938 9.042969 11.074219 10.078125 11.335938 C 12.140625 11.796875 15.371094 11.847656 17.691406 11.488281 L 18.398438 13.894531 C 18.480469 14.054688 18.640625 14.175781 18.800781 14.175781 L 19.601562 14.175781 L 19.601562 16.933594 C 19.601562 17.375 19.441406 17.773438 19.121094 18.09375 C 18.679688 18.535156 18.398438 19.175781 18.398438 19.816406 C 18.398438 20.453125 18.917969 20.976562 19.558594 20.976562 L 22.800781 20.976562 C 23.480469 20.976562 24 20.453125 24 19.773438 L 24 14.535156 Z M 7.601562 8.574219 L 6 8.574219 C 5.558594 8.574219 5.199219 8.214844 5.199219 7.773438 L 5.199219 6.976562 C 5.199219 6.535156 5.558594 6.175781 6 6.175781 L 7.601562 6.175781 Z M 19.121094 13.375 L 18.519531 11.335938 L 19.601562 11.09375 L 19.601562 13.375 Z M 22.800781 20.175781 L 19.558594 20.175781 C 19.359375 20.175781 19.199219 20.015625 19.199219 19.816406 C 19.199219 19.375 19.398438 18.976562 19.679688 18.65625 C 20.121094 18.214844 20.398438 17.574219 20.398438 16.933594 L 20.398438 10.574219 C 20.398438 10.453125 20.320312 10.335938 20.238281 10.253906 C 20.207031 10.238281 20.175781 10.222656 20.140625 10.207031 C 20.066406 10.160156 19.972656 10.144531 19.878906 10.175781 L 18.878906 10.414062 L 18.359375 10.535156 C 16.121094 11.054688 12.519531 11.054688 10.28125 10.535156 C 9.160156 10.296875 8.398438 9.296875 8.398438 8.175781 L 8.398438 6.574219 C 8.398438 5.453125 9.199219 4.453125 10.28125 4.253906 C 12.519531 3.734375 16.121094 3.734375 18.359375 4.253906 C 19.441406 4.496094 20.519531 4.613281 21.601562 4.613281 L 21.679688 4.613281 C 21.960938 4.613281 22.238281 4.773438 22.359375 5.015625 C 22.398438 5.09375 22.441406 5.175781 22.441406 5.253906 L 22.800781 8.613281 L 23.199219 14.574219 L 23.199219 16.175781 L 22 16.175781 C 21.761719 16.175781 21.601562 16.335938 21.601562 16.574219 C 21.601562 16.816406 21.761719 16.976562 22 16.976562 L 23.199219 16.976562 L 23.199219 17.773438 L 22 17.773438 C 21.761719 17.773438 21.601562 17.933594 21.601562 18.175781 C 21.601562 18.414062 21.761719 18.574219 22 18.574219 L 23.199219 18.574219 L 23.199219 19.773438 C 23.199219 20.015625 23.039062 20.175781 22.800781 20.175781 Z M 22.800781 20.175781"/>
</svg>

<svg xmlns="http://www.w3.org/2000/svg" width="32" height="32" viewBox="0 0 24 24">
    <path d="M20.8 5.375h-2.402c-.238 0-.398.16-.398.398 0 .243.16.403.398.403h2.403c.238 0 .398-.16.398-.403 0-.238-.16-.398-.398-.398zm0 0M20.8 6.977h-2.402c-.238 0-.398.16-.398.398 0 .238.16.398.398.398h2.403c.238 0 .398-.16.398-.398 0-.238-.16-.398-.398-.398zm0 0M10.8 5.375c-.241 0-.402.16-.402.398v3.204c0 .238.16.398.403.398H14c.238 0 .398-.16.398-.398 0-1.801-1.796-3.602-3.597-3.602zm.4 3.2v-2.36c1.081.2 2.16 1.281 2.359 2.36zm0 0"/>
    <path d="M23.602 8.535l-.364-3.398c-.039-.16-.078-.32-.16-.48-.277-.52-.797-.884-1.398-.884h-.078a12.79 12.79 0 0 1-3.043-.359c-2.32-.52-6.118-.52-8.438 0-1.07.262-1.906 1-2.293 1.961H6c-.879 0-1.602.719-1.602 1.602h-4c-.238 0-.398.16-.398.398 0 .238.16.398.398.398h4c0 .883.723 1.602 1.602 1.602h1.828c.383.96 1.215 1.7 2.25 1.96 2.063.462 5.293.513 7.613.153l.707 2.407c.082.16.243.28.403.28h.8v2.759c0 .441-.16.84-.48 1.16a2.494 2.494 0 0 0-.723 1.722c0 .637.52 1.16 1.16 1.16h3.243c.68 0 1.199-.523 1.199-1.203v-5.238zm-16 .04H6c-.441 0-.8-.36-.8-.802v-.796c0-.442.359-.801.8-.801h1.602zm11.52 4.8l-.602-2.04 1.082-.241v2.281zm3.679 6.8h-3.242c-.2 0-.36-.16-.36-.359 0-.441.2-.84.48-1.16a2.49 2.49 0 0 0 .72-1.722v-6.36c0-.12-.079-.238-.16-.32l-.098-.047a.305.305 0 0 0-.262-.031l-1 .238-.52.121c-2.238.52-5.84.52-8.078 0-1.12-.238-1.883-1.238-1.883-2.36v-1.6c0-1.122.801-2.122 1.883-2.321 2.239-.52 5.84-.52 8.078 0 1.082.242 2.16.36 3.243.36h.078c.28 0 .558.16.68.402.038.078.081.16.081.238l.36 3.36.398 5.96v1.602H22c-.238 0-.398.16-.398.398 0 .242.16.403.398.403h1.2v.796H22c-.238 0-.398.16-.398.403 0 .238.16.398.398.398h1.2v1.2c0 .242-.16.402-.4.402zm0 0"/>
</svg>
